U-commodities/img/icons/plant.svg

<svg width="50" height="50" viewBox="0 0 50 50" fill="none" xmlns="http://www.w3.org/2000/svg">
<path d="M26.7177 24.8033C27.6455 24.8033 28.8259 24.5277 29.8906 23.4514C32.0216 21.2973 30.9768 18.6742 30.9311 18.5645C30.8797 18.4376 30.7812 18.3366 30.6556 18.2846C30.5443 18.2399 27.9495 17.1809 25.82 19.3365C25.4489 19.7116 25.202 20.0997 25.0007 20.4864C24.8009 20.0997 24.5525 19.7116 24.1814 19.3365C22.0505 17.1823 19.4543 18.2399 19.3472 18.2846C19.2216 18.338 19.1217 18.4376 19.0703 18.5645C19.0246 18.6756 17.9799 21.2973 20.1108 23.4514C21.1756 24.5277 22.3545 24.8033 23.2823 24.8033C23.7775 24.8033 24.1914 24.7254 24.4869 24.6489V43.9597H11.2402V37.6358C11.5357 37.7123 11.9496 37.7902 12.4434 37.7902C13.3711 37.7902 14.5529 37.5146 15.6163 36.4383C17.7472 34.2841 16.7024 31.6596 16.6568 31.5485C16.604 31.4216 16.5055 31.322 16.3799 31.2701C16.2714 31.2225 13.6752 30.1678 11.5456 32.3219C11.1745 32.6956 10.9262 33.0837 10.7264 33.4718C10.5266 33.0837 10.2782 32.6956 9.90711 32.3219C7.7776 30.1692 5.18135 31.2225 5.07288 31.2701C4.94728 31.322 4.84737 31.4216 4.79599 31.5485C4.75031 31.6596 3.70553 34.2841 5.83648 36.4383C6.90124 37.5132 8.08161 37.7902 9.00935 37.7902C9.50319 37.7902 9.9171 37.7123 10.2126 37.6358V43.9597H6.44451V45H29.2812V43.9597H25.5131V34.5958L28.2178 31.8616L27.4899 31.1258L25.5131 33.1255V24.6489C25.8086 24.7254 26.2225 24.8033 26.7177 24.8033ZM10.0698 36.5999C9.50604 36.76 7.90605 37.0587 6.56297 35.7024C5.21561 34.3418 5.51106 32.7317 5.6752 32.1589C6.23898 31.9987 7.83897 31.7 9.18205 33.0563C9.99275 33.8758 10.204 34.7805 10.2126 35.5004C10.2126 35.5394 10.214 35.574 10.2154 35.6115C10.2068 36.0372 10.1298 36.3892 10.0698 36.5999ZM11.2416 35.5004C11.2488 34.7819 11.4614 33.8758 12.2721 33.0563C13.6209 31.6928 15.2138 31.9944 15.779 32.1574C15.9446 32.7288 16.24 34.3404 14.8912 35.7024C13.5424 37.0659 11.9496 36.7644 11.3844 36.6013C11.323 36.3907 11.2459 36.0386 11.2388 35.6115C11.2388 35.574 11.2416 35.5394 11.2416 35.5004ZM25.5145 22.515C25.5217 21.7965 25.7343 20.8904 26.545 20.0709C27.891 18.7088 29.4867 19.0089 30.0505 19.1734C30.2103 19.7419 30.5043 21.3622 29.1627 22.7184C27.8153 24.0805 26.221 23.7832 25.6573 23.6159C25.5959 23.4052 25.5188 23.0546 25.5117 22.6275C25.5117 22.5871 25.5145 22.554 25.5145 22.515ZM20.8359 22.717C19.4885 21.3535 19.784 19.7433 19.9481 19.172C20.5133 19.0046 22.1062 18.7059 23.455 20.0694C24.2657 20.8889 24.4769 21.795 24.4855 22.5136C24.4855 22.5525 24.4883 22.5871 24.4883 22.6247C24.4812 23.0517 24.4027 23.4038 24.3427 23.613C23.7775 23.7818 22.1832 24.0805 20.8359 22.717ZM40.9907 11.8179C41.9184 11.8179 43.0988 11.5423 44.1635 10.466C46.2945 8.31183 45.2497 5.68877 45.204 5.57912C45.1526 5.45215 45.0541 5.35115 44.9285 5.29921C44.8158 5.25448 42.2224 4.19545 40.0915 6.35103C39.7204 6.72472 39.472 7.11284 39.2722 7.49952C39.0724 7.11284 38.824 6.72472 38.4544 6.35103C36.3206 4.19545 33.7272 5.25448 33.6173 5.29921C33.4917 5.35259 33.3932 5.45215 33.3418 5.57912C33.2961 5.69021 32.2499 8.31327 34.3823 10.466C35.4471 11.5423 36.626 11.8179 37.5552 11.8179C38.0504 11.8179 38.4629 11.74 38.7598 11.6635V27.3528L36.783 25.3559L36.0551 26.0903L38.7598 28.8245V43.9597H34.9903V45H43.5541V43.9597H39.786V21.6089L42.4907 18.8748L41.7628 18.1404L39.786 20.1387V11.6635C40.0829 11.74 40.4968 11.8179 40.9907 11.8179ZM39.7903 9.5541C39.7946 8.8298 40.0015 7.90928 40.818 7.08398C42.1653 5.72196 43.761 6.02206 44.3234 6.18655C44.4832 6.75502 44.7773 8.37531 43.4356 9.73157C42.0897 11.0936 40.4954 10.7949 39.9302 10.629C39.8702 10.4155 39.7903 10.0533 39.7874 9.61181C39.7874 9.59161 39.7903 9.57574 39.7903 9.5541ZM35.1088 9.73157C33.76 8.3681 34.0554 6.75791 34.2196 6.18655C34.7876 6.02062 36.3791 5.72051 37.7264 7.08398C38.5343 7.89918 38.747 8.7995 38.7569 9.51659C38.7569 9.56276 38.7584 9.6046 38.7598 9.65077C38.7512 10.0721 38.6756 10.4198 38.6156 10.629C38.0504 10.7964 36.4576 11.0965 35.1088 9.73157Z" fill="#353535"/>
</svg>

<svg width="50" height="50" fill="none" xmlns="http://www.w3.org/2000/svg"><path d="M26.718 24.803c.927 0 2.108-.275 3.173-1.352 2.13-2.154 1.086-4.777 1.04-4.887a.507.507 0 00-.275-.28c-.112-.044-2.706-1.103-4.836 1.053a4.6 4.6 0 00-.82 1.15 4.561 4.561 0 00-.819-1.15c-2.13-2.155-4.727-1.097-4.834-1.052a.514.514 0 00-.277.28c-.045.11-1.09 2.732 1.04 4.886 1.066 1.077 2.245 1.352 3.172 1.352.495 0 .91-.078 1.205-.154v19.31H11.24v-6.323c.296.076.71.154 1.203.154.928 0 2.11-.275 3.173-1.352 2.131-2.154 1.086-4.778 1.04-4.89a.511.511 0 00-.276-.278c-.109-.047-2.705-1.102-4.834 1.052a4.53 4.53 0 00-.82 1.15 4.512 4.512 0 00-.819-1.15c-2.13-2.153-4.726-1.1-4.834-1.052a.507.507 0 00-.277.279c-.046.11-1.09 2.735 1.04 4.89 1.065 1.074 2.246 1.351 3.173 1.351a4.84 4.84 0 001.204-.154v6.324H6.445V45H29.28v-1.04h-3.768v-9.364l2.705-2.734-.728-.736-1.977 2v-8.477c.296.076.71.154 1.205.154zM10.07 36.6c-.564.16-2.164.459-3.507-.898-1.347-1.36-1.052-2.97-.888-3.543.564-.16 2.164-.459 3.507.897a3.44 3.44 0 011.03 2.444c0 .04.002.074.003.111a3.968 3.968 0 01-.145.989zm1.172-1.1a3.436 3.436 0 011.03-2.444c1.349-1.363 2.942-1.062 3.507-.899.166.572.461 2.183-.888 3.545-1.349 1.364-2.941 1.062-3.507.9a3.838 3.838 0 01-.145-.99c0-.038.003-.073.003-.112zm14.273-12.985a3.436 3.436 0 011.03-2.444c1.346-1.362 2.942-1.062 3.505-.898.16.569.454 2.19-.887 3.545-1.348 1.363-2.942 1.065-3.506.898a3.826 3.826 0 01-.145-.988c0-.04.003-.074.003-.113zm-4.68.202c-1.347-1.363-1.051-2.974-.887-3.545.565-.167 2.158-.466 3.507.897a3.442 3.442 0 011.03 2.445c0 .038.003.073.003.11-.007.428-.085.78-.145.989-.566.169-2.16.468-3.507-.896zm20.156-10.9c.927 0 2.108-.275 3.172-1.351 2.132-2.154 1.087-4.777 1.041-4.887a.507.507 0 00-.276-.28c-.112-.045-2.706-1.104-4.836 1.052a4.53 4.53 0 00-.82 1.149 4.56 4.56 0 00-.818-1.149c-2.133-2.156-4.727-1.097-4.837-1.052a.512.512 0 00-.275.28c-.046.111-1.092 2.734 1.04 4.887 1.065 1.076 2.244 1.352 3.173 1.352a4.85 4.85 0 001.205-.154v15.689l-1.977-1.997-.728.734 2.705 2.735V43.96h-3.77V45h8.564v-1.04h-3.768V21.609l2.705-2.734-.728-.735-1.977 1.999v-8.475c.297.076.71.154 1.205.154zm-1.2-2.263a3.449 3.449 0 011.027-2.47c1.347-1.362 2.943-1.062 3.505-.897.16.568.454 2.188-.887 3.545-1.346 1.362-2.94 1.063-3.506.897a3.902 3.902 0 01-.143-1.017c0-.02.003-.036.003-.058zm-4.682.178c-1.349-1.364-1.054-2.974-.89-3.545.569-.166 2.16-.466 3.507.897a3.43 3.43 0 011.03 2.433c0 .046.002.088.004.134a3.907 3.907 0 01-.144.978c-.566.167-2.158.468-3.507-.897z" fill="#353535"/></svg>
